X:1
T:Title
%%score { 1 | 2 }
L:1/8
M:6/8
K:Db
V:1 treble nm="Grand Piano"
V:2 bass 
V:1
 z3 z2[Q:1/4=100] [FA] | [FA][GB][FA] FGA | B d2- d2 B | [FA][_F=G][=FA] [_GB][FA][DF] | %4
 [CE]3- [CE]2 [DF] | [FA][GB][FA] FGA | B d2- d2 [Fd] | cdc BcB | [CA]3- [CA]2 [FA] | %9
 [Fd][Fd]A edB | [GB] [FA]2- [FA]2 [FA] | [DFB][DFB][DFB] [D=GB][Ge][Gd] | [Ac]3- [Ac]2 [CGA] | %13
 [FA][GB][FA] FGA | B d2- d2 B | Add [Gc][GB][Gc] |[M:5/8] [Fd]-[Fd]- [Fd]3 |] %17
V:2
 z3 z2 [D,D] | [D,D][D,D][D,D] [D,D][E,D][F,D] | [G,D] [G,B,D]2- [G,B,D]2 [G,DG] | %3
 [D,D][D,D][D,D] [D,D][D,D][D,A,] | [A,,A,]3- [A,,A,]2 [D,A,] | [D,D][D,D][D,D] [D,D][E,D][F,D] | %6
 [G,D] [G,B,D]2- [G,B,D]2 [D,A,] | [E,A,E][E,=G,E][E,A,E] [E,G,D][E,G,E][E,G,D] | %8
 [A,,A,]3- [A,,A,]2 [D,A,] | [D,A,][D,A,][F,DF] [G,B,G][G,B,G][G,DG] | [D,D] [D,D]2- [D,D]2 [D,D] | %11
 B,,B,,B,, E,[E,B,][E,B,] | [A,,A,]3- [A,,A,]2 A,, | [D,D][D,D][D,D] [D,D][E,D][F,D] | %14
 [G,D] [G,B,D]2- [G,B,D]2[K:treble] [G,DG] | [A,DF][A,F][A,F][K:bass] [A,,A,][A,,A,][A,,A,] | %16
[M:5/8] [D,A,]-[D,A,]- [D,A,]3 |] %17

